T: Steel City
M: 9/8
L: 1/8
K: Emin
B2B A2G E2D | E2B B2A B^cd |B2B A2G E2G | A2D D2E FGA |
B2B A2G E2B, | E2B B2A GAB |d2d c2B A2G | FGF EFE D3 :|
|: C2B, C2D E2F | G2F G2A Bcd |c2B c2B A2F | G2G F2E D2^D |
E2E D2E GEG | A2G A2B cBA |BcA B2A Bgf | ~e3 eBG E3 :|
